X: 54
T: Lad O'Beirne
R: jig
Z: 1997 by John Chambers <jc:trillian.mit.edu>
M: 6/8
L: 1/8
K: D
|: "D"d2F AGF | d2F AGF | "A7"A,CE GFG | A,CE GFE \
|  "D"DFA "G"DGB | "A7"Adc "D"d2e | fed "A7"cBA | GFE "D"D3 :|
|: "D"~f3 a^ga | fdd de=f | "C"e=ce gfg | "A7"efd cde \
|  "D"fef "A7"gfg | "D"aga "G"bag | "D"fed "A7"cBA | GFE "D"D3 :|

%%sep 1 1 500

